X: 1
T: the Rose-bud of Allenvale
C: J. Scott Skinner
B: Hunter Collection 38
R: waltz, air
Z: 2014 John Chambers <jc:trillian.mit.edu>
S: page from Concord Slow Scottish Session collection
N: "arr. Elke Baker" below clef & timesig.
M: 3/4
L: 1/8
K: A
ed |\
"A"c3dc2 | "E"B2A2B2 | "A"A6- | A4c2 |\
"D"d3ef2 | "A"e2c2A2 | "Bm"B6- "E7"B2 ||
ed |\
"A"c3de2 | A2B2c2 | "D"d4e2 | "Bm"f4ga |\
"A"e2A2d2 | "E"c4B2 | "A"A6- | A4 |]
cd |\
"A"e3f=g2 | "A7"f4e2 | "D"d6- | d4e2 |\
"B"f3ga2 | g4f2 | "E"e6- | "E7"e4 ||
fg |\
"A"a2e2c2 | "A7"A4=G2 | "D"F2A2d2 | "Bm"f3gf2 |\
"A"e2A2d2 | "E"c4B2 | "A"A6- | A4 |]
